!!!COM: Martinů, Bohuslav (Jan)
!!!OTL: String Quartet No. 3
!!!OMV: I: Allegro
!!!example: 495
!!!work: Mau-22
**kern	**dynam	**kern	**dynam	**kern	**dynam	**kern	**dynam
*part4	*part4	*part3	*part3	*part2	*part2	*part1	*part1
*staff4	*	*staff3	*	*staff2	*	*staff1	*
*I"Violoncello	*	*I"Viola	*	*I"Violin II	*	*I"Violin I	*
*I'Vc.	*	*I'Vla.	*	*I'Vln. II	*	*I'Vln. I	*
*clefF4	*	*clefC3	*	*clefG2	*	*clefG2	*
*k[]	*	*k[]	*	*k[]	*	*k[]	*
*C:	*	*C:	*	*C:	*	*C:	*
*M4/4	*	*M4/4	*	*M4/4	*	*M4/4	*
*MM121	*	*MM121	*	*MM121	*	*MM121	*
=1	=	=	=	=	=	=	=
4CC: 4AA-X: 4E: 4A:	pp	4r	.	1r	.	1r	.
4r	.	8F'L 8B-X	pp	.	.	.	.
.	.	8F'J 8B-	.	.	.	.	.
4CC: 4AA-: 4E: 4A:	.	8r	.	.	.	.	.
.	.	8E' 8A	.	.	.	.	.
4r	.	8r	.	.	.	.	.
.	.	8E' 8A	.	.	.	.	.
=2	=2	=2	=2	=2	=2	=2	=2
4CC: 4AA-X: 4E-X: 4A:	.	4r	.	2r	.	1r	.
4r	.	8F'L 8B-X	.	.	.	.	.
.	.	8F'J 8B-	.	.	.	.	.
4CC: 4AA-: 4E-: 4A:	.	8r	.	(4B	pp	.	.
.	.	8E' 8A	.	.	.	.	.
4r	.	8r	.	4c#Xt	.	.	.
.	.	8E' 8A	.	.	.	.	.
=3	=3	=3	=3	=3	=3	=3	=3
4CC: 4AA-X: 4En: 4A:	.	4r	.	2B)	.	4r	.
4r	.	8F'L 8B-X	.	.	.	8r	.
.	.	8F'J 8B-	.	.	.	16c'LL	pp
.	.	.	.	.	.	16G'JJ	.
4CC: 4AA-: 4E: 4A:	.	8r	.	(2c#X	.	16c'LL	.
.	.	.	.	.	.	16c'	.
.	.	8E' 8A	.	.	.	16c'	.
.	.	.	.	.	.	16G'JJ	.
4r	.	8r	.	.	.	8c'L	.
.	.	8E' 8A	.	.	.	16c'L	.
.	.	.	.	.	.	16B-X'JJ	.
=4	=4	=4	=4	=4	=4	=4	=4
!!linebreak:original
4CC: 4AA-X: 4E-X: 4A:	pp	4r	.	8B)	.	16A'LL	.
.	.	.	.	.	.	16G'J	.
.	.	.	.	8c#X)	.	8c'J	.
4r	.	8F'L 8B-X	.	(4c#	.	16dLL	.
.	.	.	.	.	.	16d	.
.	.	8F'J 8B-	.	.	.	16d	.
.	.	.	.	.	.	16BnJJ	<
4CC: 4AA-: 4E-: 4A:	.	8r	.	4d#X)	.	16e-XLL	.
.	.	.	.	.	.	16cJ	.
.	.	8E' 8A	.	.	.	8fJ	[
4r	.	8r	.	(8e	.	16d'KL	.
.	.	.	.	.	.	8f~	.
.	.	8E' 8A	.	8f#X	.	.	.
.	.	.	.	.	.	16c#X'Jk	.
=5	=5	=5	=5	=5	=5	=5	=5
4CC: 4AA-X: 4E-X: 4A:	.	4r	.	4e)	.	8en'L	.
.	.	.	.	.	.	16dL	<
.	.	.	.	.	.	16fJJ	.
4r	.	8F'L 8B-X	.	4f#X)	.	16c#XKL	.
.	.	.	.	.	.	8.e^J	[
.	.	8F'J 8B-	.	.	.	.	.
4CC: 4AA-: 4E-: 4A:	<	8r	.	(4f#	<	8eL	.
.	.	8E' 8A	<	.	.	16aL	.
.	.	.	.	.	.	16eJJ	.
4r	.	8r	.	4g#X)	.	16gLL	.
.	.	.	.	.	.	16g	.
.	.	8E' 8A	.	.	.	16g	.
.	.	.	.	.	.	16eJJ	.
=6	=6	=6	=6	=6	=6	=6	=6
4CC: 4AA-X: 4E-X: 4A:	.	4r	.	(8f#X)	.	16aLL	.
.	.	.	.	.	.	16g	.
.	.	.	.	8gn)	.	16bn	.
.	.	.	.	.	.	16gJJ	<
4r	[	8F'L 8B-X	[	(4.b-X	[	16bnLL	.
.	.	.	.	.	.	16a	.
.	.	8F'J 8B-	.	.	.	16ccn	.
.	.	.	.	.	.	16aJJ	.
4CC: 4GG: 4F#X:	mf	8r	.	.	.	8r	[
.	.	8E' 8A	mf	4.ccn)	mf	16aLL	f
.	.	.	.	.	.	16ccJJ	.
4r	.	8r	.	.	.	16aaLL	.
.	.	.	.	.	.	16b	.
.	.	8E' 8A	.	.	.	16dd	.
.	.	.	.	.	.	16aaJJ	.
=7	=7	=7	=7	=7	=7	=7	=7
!!linebreak:original
4CC: 4AA-X: 4E-X: 4A:	.	4r	.	4b-XT)	.	16cc#XLL	<
.	.	.	.	.	.	16eeJ	.
.	.	.	.	.	.	8aa'J	[
4r	.	8F'L 8B-X	.	(4a-XT	>	16bb^LL	.
.	.	.	.	.	.	16bb'	.
.	.	8F'J 8B-	.	.	.	16bb'	.
.	.	.	.	.	.	16a'JJ	>
4CC: 4GG: 4F#X:	>	8r	.	4gt	.	8bn'L	.
.	.	8E' 8A	.	.	.	16cc#X'^L	.
.	.	.	.	.	.	16cc#'JJ	.
4r	]	8r	.	4fT)	]]	16cc#'LL	.
.	.	.	.	.	.	16B-X'J	]
.	.	8E' 8A	.	.	.	8cn'J	.
=8	=8	=8	=8	=8	=8	=8	=8
4CC: 4AA-X: 4E-X: 4A:	p	4r	.	(4dT	]	16d-XLL	.
.	.	.	.	.	.	16d-	>
.	.	.	.	.	.	16d-	.
.	.	.	.	.	.	16A-XJJ	.
4r	.	8F'L 8B-X	.	4cT	.	16d-LL	.
.	.	.	.	.	.	16A-	.
.	.	8F'J 8B-	.	.	.	16c	]
.	.	.	.	.	.	16GJJ	.
4CC: 4GG: 4F#X:	>	8r	.	4B-XT	>	4B-X~^	pp
.	.	8E' 8A	.	.	.	.	.
.	.	.	.	.	.	(8qd-X/	.
4r	]	8r	.	4A-XT)	]	8c'L)	.
.	.	8E' 8A	.	.	.	[8B-^J	.
=9	=9	=9	=9	=9	=9	=9	=9
4CC: 4AA-X: 4E-X: 4A:	pp	4r	.	(2d-X	pp	8B-L]	.
.	.	.	.	.	.	8qdn/	.
.	.	.	.	.	.	(8cJ	.
4r	.	8F'L 8B-X	.	.	.	8BnL	<
.	.	8F'J 8B-	.	.	.	16eL	.
.	.	.	.	.	.	16dnJJ	.
4CC: 4GG: 4F#X:	.	8r	.	[2e)	.	4B)	[
.	.	8E' 8A	.	.	.	.	.
4r	.	8r	.	.	.	(8d^L	[
.	.	8E' 8A	.	.	.	8BJ)	[[
==	==	==	==	==	==	==	==
*-	*-	*-	*-	*-	*-	*-	*-
!!!CDT: 1890/12/08-1959/08/28
!!!CBL: Polička, Bohemia
!!!CDL: Liestal, Switzerland
!!!CNT: Czech
!!!AGN: Instrumental; Chamber
!!!MCN:
!!!MDT: 1905/04/13
!!!MGN: Au Quatuor Roth
!!!MLC:
!!!MPD: 1930
!!!MPN:
!!!ODT: 1929
!!!PDT: 1959
!!!excerpt-start-measure: 1
!!!excerpt-end-measure: 9
!!!excerpt-start-time: 0:00
!!!excerpt-end-time: 0:21
!!!EEV: 2020/01/19
!!!ONB: Converted from MusicXML on 2020/01/19 and edited by Craig Stuart Sapp
!!!system-decoration: [(s1,s2,s3,s4)]
